public/icons/NuxtJS-Dark.svg

<svg width="256" height="256" viewBox="0 0 256 256" fill="none" xmlns="http://www.w3.org/2000/svg">
<rect width="256" height="256" rx="60" fill="#242938"/>
<path d="M138.787 189.333H207.559C209.743 189.334 211.889 188.764 213.781 187.681C215.673 186.599 217.243 185.042 218.335 183.166C219.427 181.291 220.001 179.164 220 176.999C219.999 174.834 219.423 172.708 218.329 170.834L172.144 91.5483C171.052 89.6736 169.482 88.1167 167.591 87.0343C165.699 85.952 163.554 85.382 161.37 85.382C159.186 85.382 157.041 85.952 155.149 87.0343C153.258 88.1167 151.688 89.6736 150.596 91.5483L138.787 111.835L115.697 72.1652C114.605 70.2908 113.034 68.7341 111.142 67.6518C109.25 66.5698 107.104 66 104.92 66C102.736 66 100.59 66.5698 98.6982 67.6518C96.8062 68.7341 95.2352 70.2908 94.1427 72.1652L36.6704 170.834C35.5771 172.708 35.001 174.834 35 176.999C34.9991 179.164 35.5733 181.291 36.665 183.166C37.7567 185.042 39.3274 186.599 41.2191 187.681C43.1107 188.764 45.2567 189.334 47.441 189.333H90.6106C107.715 189.333 120.329 181.887 129.008 167.36L150.08 131.191L161.367 111.835L195.24 169.977H150.08L138.787 189.333ZM89.9068 169.957L59.7799 169.95L104.94 92.4316L127.473 131.191L112.386 157.097C106.622 166.523 100.074 169.957 89.9068 169.957Z" fill="#00DC82"/>
</svg>

<svg xmlns="http://www.w3.org/2000/svg" width="256" height="256" fill="none"><rect width="256" height="256" fill="#242938" rx="60"/><path fill="#00DC82" d="M138.787 189.333h68.772c2.184.001 4.33-.569 6.222-1.652a12.4 12.4 0 0 0 4.554-4.515 12.236 12.236 0 0 0-.006-12.332l-46.185-79.286a12.4 12.4 0 0 0-4.553-4.514 12.53 12.53 0 0 0-12.442 0 12.4 12.4 0 0 0-4.553 4.514l-11.809 20.287-23.09-39.67a12.4 12.4 0 0 0-4.555-4.513 12.54 12.54 0 0 0-12.444 0 12.4 12.4 0 0 0-4.555 4.513L36.67 170.834c-1.093 1.874-1.669 4-1.67 6.165s.573 4.292 1.665 6.167a12.4 12.4 0 0 0 4.554 4.515 12.5 12.5 0 0 0 6.222 1.652h43.17c17.104 0 29.718-7.446 38.397-21.973l21.072-36.169 11.287-19.356 33.873 58.142h-45.16zm-48.88-19.376-30.127-.007 45.16-77.518 22.533 38.759-15.087 25.906c-5.764 9.426-12.312 12.86-22.48 12.86"/></svg>
